svgs/duotone/arrow-up-z-a.svg

<svg xmlns="http://www.w3.org/2000/svg" viewBox="0 0 512 512"><!--! Font Awesome Pro 6.3.0 by @fontawesome - https://fontawesome.com License - https://fontawesome.com/license (Commercial License) Copyright 2023 Fonticons, Inc. --><defs><style>.fa-secondary{opacity:.4}</style></defs><path class="fa-primary" d="M239.6 138c11.94 13.05 11.06 33.31-1.969 45.27c-6.141 5.629-13.89 8.414-21.61 8.414c-8.672 0-17.3-3.504-23.61-10.39L160 145.9v302C160 465.7 145.7 480 128 480S96 465.7 96 447.1V145.9L63.6 181.3C51.64 194.3 31.39 195.3 18.38 183.3C5.348 171.4 4.473 151.1 16.41 138l87.1-96.09c12.12-13.26 35.06-13.26 47.19 0L239.6 138z"/><path class="fa-secondary" d="M320 96h50.75l-73.38 73.38c-9.156 9.156-11.89 22.91-6.938 34.88s16.63 19.74 29.56 19.74h127.1C465.7 223.1 480 209.7 480 192s-14.33-32-32-32h-50.75l73.38-73.38c9.156-9.156 11.89-22.91 6.938-34.88S460.9 32 447.1 32h-127.1C302.3 32 288 46.31 288 64S302.3 96 320 96zM492.6 433.3l-79.99-160.1c-10.84-21.81-46.4-21.81-57.24 0l-79.99 160.1c-7.906 15.91-1.5 35.24 14.31 43.19c15.87 7.922 35.04 1.477 42.93-14.4l7.154-14.39h88.43l7.154 14.39c6.174 12.43 23.97 23.87 42.93 14.4C494.1 468.6 500.5 449.2 492.6 433.3zM367.8 391.4L384 358.7l16.22 32.63H367.8z"/></svg>

<svg xmlns="http://www.w3.org/2000/svg" viewBox="0 0 512 512"><!-- Font Awesome Pro 6.0.0-alpha2 by @fontawesome - https://fontawesome.com License - https://fontawesome.com/license (Commercial License) --><defs><style>.fa-secondary{opacity:.4}</style></defs><path d="M320 96H370.75L297.375 169.375C288.219 178.531 285.485 192.281 290.438 204.25S307.063 224 320 224H448C465.672 224 480 209.688 480 192S465.672 160 448 160H397.25L470.625 86.625C479.782 77.469 482.516 63.719 477.563 51.75S460.938 32 448 32H320C302.329 32 288 46.312 288 64S302.329 96 320 96ZM492.614 433.312L412.621 272.359C401.78 250.547 366.221 250.547 355.379 272.359L275.387 433.312C267.481 449.219 273.887 468.551 289.698 476.504C305.571 484.426 324.741 477.98 332.631 462.105L339.786 447.711H428.215L435.37 462.105C441.543 474.531 459.344 485.977 478.303 476.504C494.114 468.551 500.52 449.219 492.614 433.312ZM367.784 391.375L384 358.746L400.217 391.375H367.784Z" class="fa-secondary"/><path d="M239.591 138.039C251.527 151.086 250.652 171.352 237.623 183.305C231.482 188.934 223.732 191.719 216.013 191.719C207.341 191.719 198.716 188.215 192.404 181.332L160 145.938V447.969C160 465.672 145.671 480 128 480S96 465.672 96 447.969V145.938L63.595 181.332C51.642 194.344 31.392 195.25 18.377 183.305C5.347 171.352 4.472 151.086 16.408 138.039L104.406 41.945C116.531 28.684 139.468 28.684 151.593 41.945L239.591 138.039Z" class="fa-primary"/></svg>
